app/images/search.svg

<svg width="18" height="18" viewBox="0 0 18 18" fill="none" xmlns="http://www.w3.org/2000/svg">
<path fill-rule="evenodd" clip-rule="evenodd" d="M11.9649 11.255H12.7549L17.7449 16.255L16.2549 17.745L11.2549 12.755V11.965L10.9849 11.685C9.84488 12.665 8.36488 13.255 6.75488 13.255C3.16488 13.255 0.254883 10.345 0.254883 6.755C0.254883 3.165 3.16488 0.254997 6.75488 0.254997C10.3449 0.254997 13.2549 3.165 13.2549 6.755C13.2549 8.365 12.6649 9.845 11.6849 10.985L11.9649 11.255ZM2.25488 6.755C2.25488 9.245 4.26488 11.255 6.75488 11.255C9.24488 11.255 11.2549 9.245 11.2549 6.755C11.2549 4.265 9.24488 2.255 6.75488 2.255C4.26488 2.255 2.25488 4.265 2.25488 6.755Z" fill="#4B4B4B"/>
</svg>

<svg width="18" height="18" fill="none" xmlns="http://www.w3.org/2000/svg"><path fill-rule="evenodd" clip-rule="evenodd" d="M11.965 11.255h.79l4.99 5-1.49 1.49-5-4.99v-.79l-.27-.28a6.471 6.471 0 01-4.23 1.57 6.5 6.5 0 116.5-6.5c0 1.61-.59 3.09-1.57 4.23l.28.27zm-9.71-4.5c0 2.49 2.01 4.5 4.5 4.5s4.5-2.01 4.5-4.5-2.01-4.5-4.5-4.5-4.5 2.01-4.5 4.5z" fill="#4B4B4B"/></svg>
